X: 10457
T: Donegal Traveller, The
R: reel
M: 4/4
K: Dmajor
d2 Ad FdAd|d2 fd cdec|d2 Ad Fdef|gbag fdec|
d2 Ad FdAd|d2 fd cdec|d2 Ad Fdef|gbag fddb||
~a3 b afdf|adfa ge ~e2|faab afdf|gfeg fddb|
~a2 ab afdf|adfa geef|g2 gf gfed|cbag fgec||

